storage/app/icons/phosphoricons/bold/printer-bold.svg

<svg xmlns="http://www.w3.org/2000/svg" fill="currentColor" viewBox="0 0 256 256"><path d="M214.67 68H204V40a12 12 0 0 0-12-12H64a12 12 0 0 0-12 12v28H41.33C25.16 68 12 80.56 12 96v80a12 12 0 0 0 12 12h28v28a12 12 0 0 0 12 12h128a12 12 0 0 0 12-12v-28h28a12 12 0 0 0 12-12V96c0-15.44-13.16-28-29.33-28M76 52h104v16H76Zm104 152H76v-32h104Zm40-40h-16v-4a12 12 0 0 0-12-12H64a12 12 0 0 0-12 12v4H36V96c0-2.17 2.44-4 5.33-4h173.34c2.89 0 5.33 1.83 5.33 4Zm-16-44a16 16 0 1 1-16-16 16 16 0 0 1 16 16"/></svg>

<svg xmlns="http://www.w3.org/2000/svg" viewBox="0 0 256 256" fill="currentColor"><path d="M214.67,68H204V40a12,12,0,0,0-12-12H64A12,12,0,0,0,52,40V68H41.33C25.16,68,12,80.56,12,96v80a12,12,0,0,0,12,12H52v28a12,12,0,0,0,12,12H192a12,12,0,0,0,12-12V188h28a12,12,0,0,0,12-12V96C244,80.56,230.84,68,214.67,68ZM76,52H180V68H76ZM180,204H76V172H180Zm40-40H204v-4a12,12,0,0,0-12-12H64a12,12,0,0,0-12,12v4H36V96c0-2.17,2.44-4,5.33-4H214.67c2.89,0,5.33,1.83,5.33,4Zm-16-44a16,16,0,1,1-16-16A16,16,0,0,1,204,120Z"/></svg>
